public/dokumentasi/Sayap_kiri.svg

<svg width="569" height="260" viewBox="0 0 569 260" fill="none" xmlns="http://www.w3.org/2000/svg">
<path d="M323.646 75.0146C326.515 74.9593 329.224 74.1632 331.186 72.7363V72.7353C333.565 71.002 334.813 68.4238 334.774 64.8476C334.756 63.2679 334.123 61.7751 333.26 60.9531C332.794 60.5156 332.204 60.1966 331.438 60.3769C331.407 60.3846 331.377 60.3932 331.348 60.4023C331.138 62.0829 329.937 63.6833 328.037 63.8115L328.024 63.8125C325.826 63.9425 324.352 62.0553 324.256 60.1074C324.073 56.4759 326.354 53.5418 329.919 52.6972H329.921C332.819 52.0158 335.685 52.8805 337.918 55.0029L337.921 55.0058C339.791 56.794 341.051 59.2893 341.594 61.9668C341.596 61.97 341.599 61.9732 341.602 61.9765L341.603 61.9756C347.739 69.8417 352.661 73.4959 357.589 74.4424H357.591C365.548 75.98 374.619 73.7603 384.604 67.5351L384.604 67.5341C388.377 65.1885 391.82 62.0853 395.589 58.6875C400.937 53.8649 406.718 48.6277 413.777 45.9687V45.9345L414.802 45.5927C417.629 44.6491 420.704 44.3444 423.707 44.7695C423.296 44.3368 422.865 43.9141 422.408 43.5039C418.862 40.3206 414.954 39.6544 410.712 40.2861C406.917 40.8514 402.95 42.441 398.854 44.2099L397.091 44.9765L397.088 44.9775L395.359 45.7275C394.787 45.9748 394.218 46.2187 393.652 46.456L393.65 46.457C377.128 53.367 359.43 52.3204 345.154 43.5009C340.065 40.3569 335.337 36.4871 330.833 32.6845L328.916 31.0615C321.642 24.8912 314.974 19.2527 307.113 15.8847C284.835 6.34693 265.902 19.1664 247.701 33.8974C223.366 53.5948 190.159 56.8459 146.659 44.3633L144.579 43.7568C137.268 41.5932 129.852 39.122 122.713 36.7461C107.034 31.5213 90.9505 26.1761 75.0889 23.6758C63.7504 21.8881 52.6243 22.5825 41.4863 25.8125C42.2043 25.7884 42.927 25.7763 43.6533 25.7763C50.2774 25.7764 57.2418 26.7654 64.4912 28.7461C70.3009 30.3276 76.2252 32.5396 82.1035 35.3193H82.1045C86.0177 37.1723 89.9868 39.1261 93.8896 41.0654L97.7666 42.9961C108.166 48.1841 118.854 53.5078 129.564 57.7304C139.07 61.4777 148.828 64.0729 158.55 65.4414C175.093 67.7721 192.081 66.6176 209.058 62.0068V62.0058C217.102 59.8253 225.429 56.6948 233.789 52.7177C235.701 51.8016 237.579 50.8593 239.457 49.9179V49.917C248.469 45.3902 257.374 40.9068 268.195 41.0937H268.196C277.702 41.2636 286.814 45.087 295.274 52.2968H295.275C298.597 55.13 301.529 58.6452 304.276 61.9258L304.277 61.9267C308.094 66.4912 311.506 70.5342 315.586 72.997L315.585 72.998C317.884 74.3839 320.781 75.0698 323.646 75.0146Z" fill="url(#paint0_linear_309_6948)" fill-opacity="0.4" stroke="url(#paint1_linear_309_6948)" stroke-width="2.99857"/>
<path d="M265.596 107.645C275.007 108.764 285.03 102.839 289.78 93.0176L289.781 93.0157C291.552 89.3634 292.724 84.9627 293.244 79.9053L293.34 78.8848C293.649 75.2223 292.885 69.7944 291.115 64.7354C289.327 59.6259 286.649 55.2797 283.416 53.379L283.399 53.3702L283.383 53.3594C283.251 53.2774 283.115 53.1822 282.978 53.0704C278.1 50.4387 273.12 49.0564 268.07 48.9678C259.005 48.8045 251.119 52.7135 242.419 57.087L239.543 58.5245C238.578 59.0026 237.605 59.4786 236.623 59.9483L236.62 59.9493L234.987 60.7159C226.825 64.494 218.686 67.4985 210.76 69.6553C193.496 74.3526 176.179 75.6392 159.259 73.4796L157.623 73.2598C148.022 71.9048 138.401 69.4173 129.009 65.8712L127.134 65.1475C116.128 60.8089 105.25 55.3818 94.7986 50.17C89.6892 47.6202 84.4213 44.9929 79.2654 42.5547C74.0751 40.1015 68.8672 38.1262 63.7732 36.669L62.7556 36.3848C50.2567 32.9767 38.9343 32.7604 29.0496 35.6426H29.0476C28.8718 35.6937 28.6957 35.7471 28.5193 35.8008C28.5293 35.8008 28.5395 35.7999 28.5496 35.7999C39.6402 35.7999 51.0062 37.5261 62.3376 40.9883L63.3992 41.3126V41.334C77.5622 45.9024 90.0667 54.7328 101.948 63.1182L101.949 63.1172C115.679 72.8016 128.369 81.734 143.279 85.1446L143.991 85.3028C163.684 89.5664 182.457 88.8512 201.351 83.1299L203.18 82.5606C210.439 80.2356 218.023 76.916 227.797 71.7501C229.773 70.7056 231.711 69.5238 233.824 68.2432V68.2442C238.992 65.1091 244.621 61.6688 250.968 60.5333V60.5323C255.005 59.807 260.309 60.2089 265.028 62.1592C269.771 64.1198 274.068 67.7152 275.735 73.4512C276.458 75.9333 276.482 78.7755 275.968 81.4415C275.454 84.1055 274.379 86.7116 272.786 88.6915H272.785C271.699 90.0465 270.121 91.0476 268.467 91.6329C266.81 92.2188 264.95 92.4334 263.248 92.0753L263.245 92.0743C260.698 91.5319 258.798 89.7942 257.898 87.3028L257.897 87.3018C257.241 85.4804 257.896 83.1869 259.738 82.2696C261.727 81.2793 263.791 82.4631 264.498 84.3321C264.523 84.3408 264.558 84.3502 264.604 84.3604C265.03 84.4478 265.65 84.3779 266.298 84.1407C266.978 83.8916 267.371 83.5788 267.448 83.4825L267.45 83.4786C268.144 82.6121 268.709 81.298 268.997 79.8419C269.285 78.3865 269.264 76.9518 268.949 75.8741L268.948 75.8692C268.089 72.901 265.574 70.7679 262.329 69.4737C262.109 69.5235 261.873 69.5538 261.622 69.5538C257.939 69.5538 255.085 70.8964 252.982 73.5108L252.743 73.8174C250.311 77.0447 248.917 82.2073 249.187 87.7813V87.7823C249.421 92.6576 251.436 97.4024 254.478 101.053C257.526 104.71 261.509 107.161 265.595 107.645H265.596Z" fill="url(#paint2_linear_309_6948)" fill-opacity="0.4" stroke="url(#paint3_linear_309_6948)" stroke-width="2.99857"/>
<path d="M411.331 180.957C415.127 181.798 418.947 181.612 421.984 180.358L421.984 180.357C425.67 178.832 428.134 175.834 429.22 171.113C429.699 169.027 429.341 166.861 428.466 165.504C427.992 164.779 427.315 164.169 426.245 164.164C426.204 164.165 426.163 164.167 426.123 164.17C425.313 166.316 423.221 168.041 420.679 167.605L420.671 167.603L420.662 167.602C417.726 167.073 416.386 164.12 416.88 161.525C417.794 156.684 421.731 153.547 426.695 153.57L426.698 153.57C430.73 153.595 434.227 155.646 436.492 159.151L436.496 159.156C438.389 162.106 439.254 165.793 439.117 169.491C439.119 169.496 439.121 169.5 439.124 169.505L439.126 169.504C444.702 181.815 450.019 188.193 456.207 191.007L456.208 191.009C466.196 195.566 478.847 195.53 493.974 190.511L493.976 190.511C499.69 188.623 505.211 185.634 511.254 182.36L511.254 182.359C519.831 177.711 529.109 172.655 539.251 171.401L539.262 171.356L540.719 171.232C544.743 170.89 548.89 171.467 552.71 172.984C552.393 172.435 552.059 171.89 551.702 171.35L551.4 170.903C547.744 165.583 542.809 163.462 537.023 162.943C531.107 162.413 524.47 163.574 517.597 164.784L517.592 164.785L515.078 165.221C514.245 165.364 513.418 165.505 512.598 165.637L512.595 165.637L511.473 165.81C487.925 169.256 465.423 162.214 449.683 146.31C443.168 139.728 437.574 132.048 432.26 124.764L432.261 124.763C424.885 114.649 418.099 105.374 409.247 98.4977L408.384 97.8401C382.086 78.1911 353.078 89.0444 324.424 102.647C285.505 121.126 239.932 114.343 185.507 82.8074C176.57 77.6316 167.592 72.0173 158.948 66.6164L158.947 66.6153C139.966 54.7456 120.491 42.5895 100.403 34.2489L100.402 34.2487C86.0402 28.2855 71.1684 25.6574 55.4736 26.3659C56.4281 26.563 57.3845 26.7766 58.3424 27.0081C67.0637 29.1164 75.9184 32.6352 84.8326 37.5501L84.8338 37.5494C91.9804 41.481 99.077 46.281 105.933 51.8124L105.933 51.8127C112.017 56.7266 118.175 61.9075 124.112 66.905L124.112 66.9059C136.153 77.0469 148.531 87.4579 161.289 96.4269C172.612 104.386 184.635 110.908 197.001 115.805C218.041 124.139 240.775 128.026 264.595 127.358L264.597 127.358C275.178 127.067 286.351 125.754 297.819 123.469L300.117 122.999C301.521 122.7 302.915 122.39 304.305 122.074L308.472 121.116C321.778 118.024 334.93 114.956 349.117 118.646L349.118 118.646C361.58 121.896 372.362 129.829 381.207 142.015L381.207 142.016C384.678 146.804 387.421 152.365 389.994 157.559L389.995 157.561C393.567 164.786 396.772 171.195 401.361 175.737C403.947 178.293 407.542 180.118 411.331 180.957Z" fill="url(#paint4_linear_309_6948)" fill-opacity="0.4" stroke="url(#paint5_linear_309_6948)" stroke-width="4.06188"/>
<path d="M324.513 205.444C336.548 209.913 351.631 205.304 361.011 193.883L361.013 193.881C364.739 189.353 367.842 183.487 370.196 176.408L370.196 176.407C371.769 171.683 372.49 164.293 371.77 157.069C371.043 149.772 368.9 143.198 365.247 139.666L365.228 139.649L365.21 139.63C365.06 139.478 364.908 139.306 364.761 139.111C359.179 134.098 353.064 130.696 346.447 128.973L346.446 128.973C335.305 126.066 324.389 128.202 312.482 130.944L310.087 131.499C307.273 132.154 304.431 132.811 301.546 133.422L301.541 133.423C289.556 135.934 277.829 137.437 266.635 137.894L264.404 137.972L262.062 138.025C238.681 138.411 216.27 134.578 195.375 126.614L193.29 125.805C180.673 120.803 168.414 114.203 156.846 106.198L155.728 105.419C144.256 97.3548 133.179 88.2253 122.482 79.2432L117.921 75.4059C112.005 70.4222 105.904 65.2865 99.8916 60.4351C93.8387 55.553 87.6101 51.2956 81.3669 47.7557L80.1182 47.057C64.7457 38.5911 49.9062 34.702 35.9736 35.3509L35.9715 35.3514L35.2276 35.3906C35.2402 35.3936 35.2532 35.3957 35.2658 35.3988C49.8685 38.9288 64.2844 44.8203 78.1023 52.9856L79.3965 53.7496L79.3903 53.7752C96.5849 64.2982 110.238 79.9076 123.213 94.7304L123.214 94.7297C138.447 112.123 152.516 128.152 171.509 137.322L171.509 137.323C196.874 149.588 222.636 154.556 250.314 152.552L250.314 152.551C260.612 151.8 271.655 149.843 286.167 146.151C289.101 145.405 292.029 144.468 295.219 143.455L295.219 143.454C303.021 140.971 311.529 138.233 320.246 138.757L320.247 138.757C325.794 139.087 332.65 141.305 338.242 145.375C343.864 149.467 348.377 155.568 348.746 163.652L348.745 163.653C348.906 167.15 348.034 170.899 346.509 174.245C344.984 177.589 342.739 180.679 340.011 182.778C338.15 184.217 335.753 185.032 333.389 185.276C331.022 185.52 328.505 185.211 326.377 184.198L326.372 184.196C323.192 182.671 321.242 179.778 320.851 176.211L320.851 176.21C320.567 173.603 322.159 170.792 324.876 170.17C327.809 169.499 330.151 171.714 330.487 174.4C330.518 174.419 330.56 174.444 330.617 174.472C331.149 174.723 331.989 174.826 332.918 174.72C333.893 174.609 334.51 174.322 334.641 174.22L334.646 174.216C335.836 173.296 336.997 171.745 337.84 169.92C338.682 168.095 339.112 166.199 339.04 164.679L339.039 164.674C338.853 160.494 336.225 156.882 332.366 154.145C332.059 154.141 331.736 154.107 331.404 154.026C326.555 152.854 322.37 153.713 318.769 156.486L318.768 156.487L318.356 156.814C314.126 160.289 310.647 166.643 309.229 174.068L309.229 174.069C307.985 180.563 309.13 187.452 311.973 193.226C314.822 199.012 319.285 203.507 324.512 205.444L324.513 205.444Z" fill="url(#paint6_linear_309_6948)" fill-opacity="0.4" stroke="url(#paint7_linear_309_6948)" stroke-width="4.06188"/>
<defs>
<linearGradient id="paint0_linear_309_6948" x1="27.5381" y1="43.8062" x2="427.681" y2="43.8062" gradientUnits="userSpaceOnUse">
<stop stop-color="#FFC446"/>
<stop offset="1" stop-color="#FCF0D6"/>
</linearGradient>
<linearGradient id="paint1_linear_309_6948" x1="27.5381" y1="43.8062" x2="427.681" y2="43.8062" gradientUnits="userSpaceOnUse">
<stop stop-color="#FCF0D6"/>
<stop offset="1" stop-color="#FFC446"/>
</linearGradient>
<linearGradient id="paint2_linear_309_6948" x1="19.5281" y1="70.7105" x2="294.906" y2="70.7105" gradientUnits="userSpaceOnUse">
<stop stop-color="#FFC446"/>
<stop offset="1" stop-color="#FCF0D6"/>
</linearGradient>
<linearGradient id="paint3_linear_309_6948" x1="19.5281" y1="70.7105" x2="294.906" y2="70.7105" gradientUnits="userSpaceOnUse">
<stop stop-color="#FCF0D6"/>
<stop offset="1" stop-color="#FFC446"/>
</linearGradient>
<linearGradient id="paint4_linear_309_6948" x1="31.3857" y1="45.619" x2="558.246" y2="172.979" gradientUnits="userSpaceOnUse">
<stop stop-color="#FFC446"/>
<stop offset="1" stop-color="#FCF0D6"/>
</linearGradient>
<linearGradient id="paint5_linear_309_6948" x1="31.3857" y1="45.619" x2="558.246" y2="172.979" gradientUnits="userSpaceOnUse">
<stop stop-color="#FCF0D6"/>
<stop offset="1" stop-color="#FFC446"/>
</linearGradient>
<linearGradient id="paint6_linear_309_6948" x1="12.2755" y1="78.4939" x2="374.86" y2="166.143" gradientUnits="userSpaceOnUse">
<stop stop-color="#FFC446"/>
<stop offset="1" stop-color="#FCF0D6"/>
</linearGradient>
<linearGradient id="paint7_linear_309_6948" x1="12.2755" y1="78.4939" x2="374.86" y2="166.143" gradientUnits="userSpaceOnUse">
<stop stop-color="#FCF0D6"/>
<stop offset="1" stop-color="#FFC446"/>
</linearGradient>
</defs>
</svg>

<svg xmlns="http://www.w3.org/2000/svg" width="569" height="260" fill="none" viewBox="0 0 569 260"><path fill="url(#a)" fill-opacity=".4" stroke="url(#b)" stroke-width="3" d="M323.65 75.01c2.86-.05 5.57-.85 7.54-2.27 2.37-1.74 3.62-4.32 3.58-7.89-.01-1.58-.65-3.07-1.51-3.9-.47-.43-1.06-.75-1.82-.57-.03 0-.06.01-.09.02-.21 1.68-1.41 3.28-3.31 3.41h-.02c-2.19.13-3.67-1.75-3.76-3.7-.19-3.63 2.09-6.57 5.66-7.41 2.9-.68 5.77.18 8 2.3v.01c1.87 1.78 3.13 4.28 3.67 6.96.01 0 .01 0 .01.01 6.14 7.86 11.06 11.52 15.99 12.46 7.96 1.54 17.03-.68 27.01-6.9v-.01c3.78-2.34 7.22-5.44 10.99-8.84 5.35-4.83 11.13-10.06 18.19-12.72v-.04l1.02-.34c2.83-.94 5.9-1.25 8.91-.82-.41-.43-.84-.86-1.3-1.27-3.55-3.18-7.46-3.85-11.7-3.21-3.79.56-7.76 2.15-11.86 3.92l-1.76.77-1.73.75c-.57.24-1.14.49-1.71.73-16.52 6.91-34.22 5.86-48.5-2.96-5.09-3.14-9.81-7.01-14.32-10.82l-1.91-1.62c-7.28-6.17-13.95-11.81-21.81-15.18-22.28-9.53-41.21 3.29-59.41 18.02-24.33 19.69-57.54 22.95-101.04 10.46l-2.08-.6c-7.31-2.17-14.73-4.64-21.87-7.01-15.68-5.23-31.76-10.57-47.62-13.07-11.34-1.79-22.47-1.1-33.6 2.13.71-.02 1.44-.03 2.16-.03 6.63 0 13.59.99 20.84 2.97 5.81 1.58 11.74 3.79 17.61 6.57 3.92 1.85 7.89 3.81 11.79 5.75L97.77 43c10.4 5.18 21.08 10.51 31.79 14.73 9.51 3.75 19.27 6.34 28.99 7.71 16.54 2.33 33.53 1.18 50.51-3.43 8.04-2.18 16.37-5.32 24.73-9.29 1.91-.92 3.79-1.86 5.67-2.8 9.01-4.53 17.91-9.01 28.73-8.83h.01c9.5.17 18.61 4 27.07 11.21 3.33 2.83 6.26 6.35 9.01 9.63 3.81 4.56 7.23 8.6 11.31 11.07h-.01c2.3 1.38 5.2 2.07 8.07 2.01Z"/><path fill="url(#c)" fill-opacity=".4" stroke="url(#d)" stroke-width="3" d="M265.6 107.64c9.41 1.12 19.43-4.8 24.18-14.62 1.77-3.66 2.94-8.06 3.46-13.11l.1-1.03c.31-3.66-.46-9.09-2.22-14.14-1.79-5.11-4.47-9.46-7.7-11.36l-.02-.01-.02-.01c-.13-.08-.26-.18-.4-.29-4.88-2.63-9.86-4.01-14.91-4.1-9.07-.17-16.95 3.74-25.65 8.12l-2.88 1.43c-.96.48-1.94.96-2.92 1.43l-1.63.77c-8.17 3.77-16.3 6.78-24.23 8.94-17.26 4.69-34.58 5.98-51.5 3.82l-1.64-.22c-9.6-1.36-19.22-3.84-28.61-7.39l-1.88-.72c-11-4.34-21.88-9.77-32.33-14.98-5.11-2.55-10.38-5.18-15.53-7.62-5.19-2.45-10.4-4.42-15.5-5.88l-1.01-.29c-12.5-3.4-23.83-3.62-33.71-.74-.18.05-.35.11-.53.16h.03c11.09 0 22.46 1.73 33.79 5.19l1.06.32v.02c14.16 4.57 26.67 13.4 38.55 21.79 13.73 9.68 26.42 18.61 41.33 22.02l.71.16c19.69 4.27 38.47 3.55 57.36-2.17l1.83-.57c7.26-2.32 14.84-5.64 24.62-10.81 1.97-1.04 3.91-2.23 6.02-3.51 5.17-3.13 10.8-6.57 17.15-7.71 4.03-.72 9.34-.32 14.06 1.63 4.74 1.96 9.04 5.56 10.71 11.29.72 2.48.74 5.33.23 7.99-.52 2.67-1.59 5.27-3.18 7.25-1.09 1.36-2.67 2.36-4.32 2.94-1.66.59-3.52.8-5.22.45v-.01c-2.55-.54-4.45-2.28-5.35-4.77-.66-1.82 0-4.11 1.84-5.03 1.99-.99 4.05.19 4.76 2.06.02.01.06.02.1.03.43.09 1.05.02 1.7-.22.68-.25 1.07-.56 1.15-.66.69-.87 1.26-2.18 1.55-3.64.29-1.45.26-2.89-.05-3.97-.86-2.97-3.38-5.1-6.62-6.4-.22.05-.46.08-.71.08-3.68 0-6.53 1.35-8.64 3.96l-.24.31c-2.43 3.22-3.82 8.39-3.55 13.96.23 4.88 2.25 9.62 5.29 13.27 3.05 3.66 7.03 6.11 11.12 6.59Z"/><path fill="url(#e)" fill-opacity=".4" stroke="url(#f)" stroke-width="4.06" d="M411.33 180.96c3.8.84 7.62.65 10.65-.6 3.69-1.53 6.15-4.53 7.24-9.25.48-2.08.12-4.25-.75-5.61-.48-.72-1.16-1.33-2.22-1.34-.05 0-.09.01-.13.01-.81 2.15-2.9 3.87-5.44 3.43h-.02c-2.93-.53-4.27-3.48-3.78-6.07.91-4.85 4.85-7.98 9.81-7.96h.01c4.03.02 7.53 2.08 9.79 5.58l.01.01c1.89 2.95 2.75 6.63 2.62 10.33v.01h.01c5.57 12.31 10.89 18.69 17.08 21.51 9.99 4.56 22.64 4.52 37.76-.5h.01c5.71-1.89 11.23-4.88 17.27-8.15 8.58-4.65 17.86-9.7 28-10.96l.01-.04 1.46-.13c4.02-.34 8.17.24 11.99 1.75-.32-.54-.65-1.09-1.01-1.63l-.3-.45c-3.66-5.32-8.59-7.44-14.38-7.96-5.91-.53-12.55.63-19.42 1.84h-.01l-2.51.44c-.83.14-1.66.28-2.48.42l-1.13.17c-23.54 3.45-46.05-3.6-61.79-19.5-6.51-6.58-12.11-14.26-17.42-21.55-7.38-10.11-14.16-19.39-23.01-26.26l-.87-.66c-26.29-19.65-55.3-8.8-83.96 4.81-38.92 18.48-84.49 11.69-138.91-19.84-8.94-5.18-17.92-10.79-26.56-16.19-18.98-11.87-38.46-24.03-58.55-32.37-14.36-5.96-29.23-8.59-44.93-7.88.96.19 1.91.41 2.87.64 8.72 2.11 17.58 5.63 26.49 10.54 7.15 3.93 14.25 8.73 21.1 14.26 6.09 4.92 12.24 10.1 18.18 15.1 12.04 10.14 24.42 20.55 37.18 29.52 11.32 7.96 23.34 14.48 35.71 19.38 21.04 8.33 43.78 12.22 67.6 11.55 10.58-.29 21.75-1.61 33.22-3.89l2.3-.47c1.4-.3 2.8-.61 4.19-.93l4.16-.95c13.31-3.1 26.46-6.16 40.65-2.47 12.46 3.25 23.24 11.18 32.09 23.36v.01c3.47 4.78 6.21 10.35 8.78 15.54h.01c3.57 7.23 6.77 13.63 11.36 18.18 2.59 2.55 6.18 4.38 9.97 5.22Z"/><path fill="url(#g)" fill-opacity=".4" stroke="url(#h)" stroke-width="4.06" d="M324.51 205.44c12.04 4.47 27.12-.14 36.5-11.56 3.73-4.53 6.83-10.39 9.19-17.47 1.57-4.73 2.29-12.12 1.57-19.34-.73-7.3-2.87-13.87-6.52-17.4l-.02-.02-.02-.02c-.15-.15-.3-.32-.45-.52-5.58-5.01-11.7-8.41-18.31-10.14-11.14-2.9-22.06-.77-33.97 1.97l-2.39.56c-2.82.65-5.66 1.31-8.54 1.92h-.01c-11.98 2.51-23.71 4.02-34.91 4.47l-2.23.08-2.34.06c-23.38.38-45.79-3.45-66.68-11.42l-2.09-.8c-12.62-5.01-24.88-11.61-36.44-19.61l-1.12-.78c-11.47-8.07-22.55-17.19-33.25-26.18l-4.56-3.83C112 70.42 105.9 65.29 99.89 60.44c-6.05-4.89-12.28-9.14-18.52-12.68l-1.25-.7C64.75 38.59 49.91 34.7 35.97 35.35l-.74.04c.01 0 .02.01.04.01 14.6 3.53 29.01 9.42 42.83 17.59l1.3.76-.01.03c17.19 10.52 30.85 26.13 43.82 40.95 15.24 17.39 29.31 33.42 48.3 42.59 25.36 12.27 51.13 17.24 78.8 15.23 10.3-.75 21.34-2.71 35.86-6.4 2.93-.74 5.86-1.68 9.05-2.69v-.01c7.8-2.48 16.31-5.22 25.03-4.69 5.54.33 12.4 2.55 17.99 6.62 5.62 4.09 10.14 10.19 10.51 18.27.16 3.5-.72 7.25-2.24 10.6-1.53 3.34-3.77 6.43-6.5 8.53-1.86 1.44-4.26 2.25-6.62 2.5-2.37.24-4.89-.07-7.01-1.08h-.01c-3.18-1.53-5.13-4.42-5.52-7.99-.28-2.61 1.31-5.42 4.03-6.04 2.93-.67 5.27 1.54 5.61 4.23.03.02.07.04.13.07.53.25 1.37.36 2.3.25.97-.11 1.59-.4 1.72-.5h.01c1.19-.92 2.35-2.47 3.19-4.3s1.27-3.72 1.2-5.24v-.01c-.19-4.18-2.81-7.79-6.67-10.52-.31-.01-.63-.04-.97-.12-4.84-1.18-9.03-.32-12.63 2.46l-.41.32c-4.23 3.48-7.71 9.83-9.13 17.26-1.24 6.49-.1 13.38 2.74 19.16 2.85 5.78 7.32 10.28 12.54 12.21Z"/><defs><linearGradient id="a" x1="27.54" x2="427.68" y1="43.81" y2="43.81" gradientUnits="userSpaceOnUse"><stop stop-color="#ffc446"/><stop offset="1" stop-color="#fcf0d6"/></linearGradient><linearGradient id="b" x1="27.54" x2="427.68" y1="43.81" y2="43.81" gradientUnits="userSpaceOnUse"><stop stop-color="#fcf0d6"/><stop offset="1" stop-color="#ffc446"/></linearGradient><linearGradient id="c" x1="19.53" x2="294.91" y1="70.71" y2="70.71" gradientUnits="userSpaceOnUse"><stop stop-color="#ffc446"/><stop offset="1" stop-color="#fcf0d6"/></linearGradient><linearGradient id="d" x1="19.53" x2="294.91" y1="70.71" y2="70.71" gradientUnits="userSpaceOnUse"><stop stop-color="#fcf0d6"/><stop offset="1" stop-color="#ffc446"/></linearGradient><linearGradient id="e" x1="31.39" x2="558.25" y1="45.62" y2="172.98" gradientUnits="userSpaceOnUse"><stop stop-color="#ffc446"/><stop offset="1" stop-color="#fcf0d6"/></linearGradient><linearGradient id="f" x1="31.39" x2="558.25" y1="45.62" y2="172.98" gradientUnits="userSpaceOnUse"><stop stop-color="#fcf0d6"/><stop offset="1" stop-color="#ffc446"/></linearGradient><linearGradient id="g" x1="12.28" x2="374.86" y1="78.49" y2="166.14" gradientUnits="userSpaceOnUse"><stop stop-color="#ffc446"/><stop offset="1" stop-color="#fcf0d6"/></linearGradient><linearGradient id="h" x1="12.28" x2="374.86" y1="78.49" y2="166.14" gradientUnits="userSpaceOnUse"><stop stop-color="#fcf0d6"/><stop offset="1" stop-color="#ffc446"/></linearGradient></defs></svg>
